X:1
T:Title
%%score { ( 1 4 ) | ( 2 3 ) }
L:1/8
Q:1/4=111
M:6/4
K:Bb
V:1 treble nm="Grand Piano"
V:4 treble 
V:2 bass 
V:3 bass 
V:1
 [F,DF]4 [G,_D=E]2 [B,=DF]4[K:bass] [F,C_E]2 | [F,B,D]2[K:treble] [DF]2 [DFB]2 [DFB]4 [CEA]2 | %2
w: Ira~D.~Sankey * * *||
 [A,CE]4 [=B,D]2 [A,CE]4 [A,C]2 | .D6[K:bass] z6 | [B,DF]4 [G,_D=E]2 [B,=DF]4[K:bass] [F,C_E]2 | %5
w: |||
 F,2- [F,F]2[K:treble] [DB]2 [Fd]4 [DB]2 | G2 A2 B2 F2 F2 [DFB]2 | %7
w: ||
[M:15/8] B2- [EB]-[EB] [EA]2 [DB]3- [DB]6 |[M:6/4] c4 B2 A4 F2 | %9
w: ||
 d2- [F,Fd]2 [Fc]2 [B,FB]4 [B,DF]2 | G2- [=B,FG]2 [C=EG]2 A2- [GA]2 [D^FA]2 | %11
w: ||
 B2- [F-B]2 FB, c4 _d2 | .d6 z6 | [FB]4 [^FA]2 [Gc]4 [GB]2 | G2 A2 B2 F4 B2 |[M:15/8] .B6 z3 z6 |] %16
w: |||||
V:2
 B,,4 B,,2 B,,4 A,,2 | z2 B,2 B,,2 F,4 F,2 | F,4 F,2 F,4 F,,2 | F,,2 G,,2 A,,2 B,,6 | %4
 B,,4 B,,2 B,,4 A,,2 | z2 D2 [B,,F,]2 [B,,B,]4 [B,,B,]2 | .B,6 .[F,=D]6 |[M:15/8] .F,6 z3 z6 | %8
[M:6/4] [F,A,E]4 [F,B,D]2 [F,CE]4 [F,A,E]2 | .[B,,B,]4 [E,A,]2 D,4 B,,2 | z2 D,2 C,2 F,2 _D2 D,2 | %11
 z2 _D2 .[G,C=E]2 [F,A,_E]6 | .[B,,B,]4 [B,,G,]2 [B,,F,]4 [E,A,]2 | %13
 [D,B,]4 [D,C]2 [E,B,]4 [E,B,]2 | .B,6 z6 |[M:15/8] [DF]2 C-C [F,,F,]2 [B,,F,]3- [B,,F,]6 |] %16
V:3
 x12 | .B,,6 z6 | x12 | x12 | x12 | .B,,6 z6 | [=E,_D]2- [E,A,D]2 [E,G,D]2 B,2- [D,B,]2 B,,2 | %7
[M:15/8] z2 C-C [F,,F,]2 [B,,F,]3- [B,,F,]6 |[M:6/4] x12 | x12 | E,12 | .G,6 z6 | x12 | x12 | %14
 [E,E]2- [E,A,E]2 [E,G,E]2 [D,B,]4 [G,B,D]2 |[M:15/8] .F,6 z3 z6 |] %16
V:4
 x10[K:bass] x2 | x2[K:treble] x10 | x12 | [A,F]2[K:bass] [B,=E]2 [F,C_E]2 [F,B,D]6 | %4
 x10[K:bass] x2 | .[B,D]6[K:treble] z6 | x12 |[M:15/8] .[DF]3 z3 z3 z6 |[M:6/4] x12 | .D6 z6 | %10
 .[B,E]6 .[CF]6 | .[DG]4 B2 z6 | D2 [F,F]2 [=E_d]2 [F=d]4 [Fc]2 | x12 | x12 | %15
[M:15/8] z2 E-E [EA]2 [DB]3- [DB]6 |] %16

